X:22
T:Silver Spear (reel), The
I:titlefont Times-Roman 24
I:partsfont Times-Roman 20
R: reel
M:4/4
L:1/8
O:Trad. (25.11.2015/NS)
K:Dmaj
AG |: "D" FA A2 BAFA | dfed "G"BcdA | "D" FA ~A2 BAFA | dfed "A"B2 A2 |
"D" FA A2 BAFA | dfed Bdef | "G" ~g3 e "D/F#"~f3 e | "Em" dfed "A"B2 A2 :|
|: "D" faaf bfaf | gfed Bcde | "Em" faaf bfaf | gfed ~B2 A2 |
"D/F#" faaf bfaf | gfed Bdef | "G" ~g3 e "D/F#"~f3 e | "Em"  dfed "A"B2 A2 :|
%%begintext
The Silver Spear
AG |: FAA2 BAFA | dfed BcdA | FA~A2 BAFA | dfed B2A2 |
FAA2 BAFA | dfed Bdef | ~g3e ~f3e | dfed B2A2 :|
|: faaf bfaf | gfed Bcde | faaf bfaf | gfed ~B2A2 |
faaf bfaf | gfed Bdef | ~g3e ~f3e | dfed B2A2 :|
%%endtext
%%vskip
T:Da New Rigged Ship
K:Ador
eg|: "Am" a2 ab ageg| agbg agef %| "G" g2 gg fgag|1 "D" f2 d2 d2 eg:|2 "D" f2 d2 d2 ed||
%|: "A" ^cAcA "Em"B2 ed| "A" ^cAcA "Em"E2 ed| "A" ^cAcA "Em"B2 ed|1 "A" ^c2 A2 A2 ed :|2"A" ^c2 A2 A2 AB||
% "C" cdec "G/B" BcdB| "Am" ABAF "G"GF E2| "F" cdec BcdB| "Am/E" c2 A2 A2 AB|
% "D" cdec BcdB| "Em" ABAF GF E2| "F" cdec BcdB| "G" c2 A2A2 ||
%%vskip
%%begintext
|: Am      | %          | G         | D      :|
|: A  Em  | A  Em  | A  Em  | A      :|
| C  G/H  | Am  G  | F          | Am/E    | D     | Em     | F      | G      ||
%%endtext
%%vskip
T:The Boys Of Malin
K:Amaj
|: "A" ABcd eAce| "D"fedf "E"edcB %| "A"ABcd eAce|1 "E" fdBc d2cB:|2 "E" fdBc defg||
% "A" aAAA cAce| a2ag fefg| "Bm"aAAA cAce| fdBc defg|
% "A/C#" aAAA cAce| a2ag f2g2| "D"afge "A/C#"fdec| "Bm"dcBc "E"d2cB|
%|: "A" Aece Aece| Aece "D"~d2cB| "A"Aece Aece| "E"fdBc d2cB :|
%%vskip
%%begintext
|: A      | (D)  (E)   | A        | E      :|
|  A      | %             | Hm     | %     | A/C#      | %       |   D  A/C#   |  Hm   E    |
|: A      |          D    | A        | E      :|
%%endtext
%%vskip
%%vskip
%%vskip
%%vskip
%%vskip
%%vskip
%%vskip
W:Jamiäänitteitä: http://muualla.net/irkku/
W:user: kurssi, pass: keikka

